X:1
T:Title
%%score { 1 | 2 }
L:1/8
M:9/8
K:Bb
V:1 treble nm="Grand Piano"
V:2 bass 
V:1
 z3 z2[Q:1/4=116] [DF] [DF]2 [DF] | [DB]3- [DB]2 [EG] [DF]2 [B,D] | [DF]6 [DB]3 | c3- c2 c G2 A | %4
[M:5/8] [DB]-[DB]- [DB]3 |[M:2/4] [DF] [DF]2 [DF] |[M:9/8] [EG]3- [EG]2 [Gc] [GB]2 [EG] | %7
 [DF]3- [DF]2 [Fd] [Fd]2 B | d6 c3 |[M:5/8] [DB]-[DB]- [DB]3 |[M:2/4] [DB] c2 d | %11
[M:9/8] c3- c2 F F2 F | [DB]3- [DB]2 B d2 e | d6 B3 |[M:5/8] c-c- c3 |[M:2/4] F [Fd]2 [=E_d] | %16
[M:9/8] [Fd]3- [Fd]2 [Ge] [Fd]2 [Fc] | [FB]6 G3 |[M:5/4] F4- Fd d3 c |[M:5/8] [DB]-[DB]- [DB]3 |] %20
V:2
 z3 z2 [B,,B,] [B,,B,]2 [B,,B,] | [B,,B,]3- [B,,B,]2 [B,,B,] [B,,B,]2 [B,,F,] | [B,,B,]6 [B,,B,]3 | %3
 [E,G,E]3- [E,G,E]2 [E,G,E] [E,B,E]2 [F,E] |[M:5/8] [B,,F,]-[B,,F,]- [B,,F,]3 | %5
[M:2/4] [B,,B,] [B,,B,]2 [B,,B,] |[M:9/8] [E,B,]3- [E,B,]2 [E,B,] [E,B,]2 [E,B,] | %7
 [B,,B,]3- [B,,B,]2 [B,,B,] [B,,B,]2 [G,B,D] | [F,B,F]6 [F,A,E]3 | %9
[M:5/8] [B,,B,]-[B,,B,]- [B,,B,]3 |[M:2/4] [B,,B,] [F,A,E]2 [F,B,F] | %11
[M:9/8] [F,A,E]3- [F,A,E]2 [F,CE] [F,B,D]2 [F,A,C] | %12
 [B,,B,]3- [B,,B,]2[K:treble] [B,D] [B,F]2 [B,G] | [B,F]6 [G,C=E]3 | %14
[M:5/8][K:bass] [F,A,F]-[F,A,F]- [F,A,F]3 |[M:2/4] [F,A,] [B,,B,]2 [B,,B,] | %16
[M:9/8] [B,,B,]3- [B,,B,]2 [B,,B,] [B,,B,]2 [C,A,] | [D,B,]6 [E,B,E]3 | %18
[M:5/4] [F,B,D]4- [F,B,D][F,B,F] [F,B,F]3 [F,E] |[M:5/8] [B,,F,]-[B,,F,]- [B,,F,]3 |] %20

